app/img/icons/place.svg

<svg width="18" height="20" viewBox="0 0 18 20" fill="none" xmlns="http://www.w3.org/2000/svg">
<path d="M8.99988 14.1305C11.9911 14.1305 14.416 11.7473 14.416 8.80742C14.416 5.86758 11.9911 3.48438 8.99988 3.48438C6.00863 3.48438 3.58374 5.86758 3.58374 8.80742C3.58374 11.7473 6.00863 14.1305 8.99988 14.1305Z" fill="#F3D79A"/>
<path d="M15.3641 2.59063C13.6641 0.919922 11.4042 0 9 0C6.59579 0 4.33585 0.919922 2.63593 2.59063C0.93601 4.26133 0 6.48281 0 8.84531C0 13.0137 2.96502 16.6121 7.08426 17.4891L9 20L10.9161 17.4891C15.035 16.6121 18 13.0137 18 8.84531C18 6.48281 17.064 4.26133 15.3641 2.59063ZM9 2.30938C12.6451 2.30938 15.6105 5.22383 15.6105 8.80625C15.6105 12.3887 12.6451 15.3031 9 15.3031C5.35493 15.3031 2.38951 12.3887 2.38951 8.80625C2.38951 5.22383 5.35493 2.30938 9 2.30938Z" fill="#F3D79A"/>
</svg>

<svg width="18" height="20" fill="none" xmlns="http://www.w3.org/2000/svg"><path d="M9 14.13c2.991 0 5.416-2.383 5.416-5.323 0-2.94-2.425-5.323-5.416-5.323-2.991 0-5.416 2.384-5.416 5.323 0 2.94 2.425 5.323 5.416 5.323z" fill="#F3D79A"/><path d="M15.364 2.59A9.02 9.02 0 009 0a9.02 9.02 0 00-6.364 2.59A8.712 8.712 0 000 8.846c0 4.169 2.965 7.767 7.084 8.644L9 20l1.916-2.51C15.035 16.611 18 13.013 18 8.844a8.712 8.712 0 00-2.636-6.254zM9 2.31c3.645 0 6.61 2.914 6.61 6.496 0 3.583-2.965 6.497-6.61 6.497-3.645 0-6.61-2.914-6.61-6.497C2.39 5.224 5.355 2.31 9 2.31z" fill="#F3D79A"/></svg>
